documentation/images/world.svg

<svg fill="none" height="24" viewBox="0 0 24 24" width="24" xmlns="http://www.w3.org/2000/svg"><path d="m12 1.75c-2.02725 0-4.00899.60115-5.69459 1.72744-1.6856 1.12628-2.99937 2.72711-3.77517 4.60005-.7758 1.87295-.97878 3.93391-.58328 5.92221.39549 1.9883 1.37171 3.8147 2.8052 5.2481 1.43349 1.4335 3.25986 2.4098 5.24814 2.8052 1.9883.3955 4.0493.1926 5.9222-.5832 1.873-.7758 3.4738-2.0896 4.6001-3.7752s1.7274-3.6673 1.7274-5.6946c-.0003-2.71839-1.0803-5.32536-3.0024-7.24755-1.9222-1.92219-4.5292-3.00218-7.2476-3.00245zm-.25 10.48-1.25 5.27-2-1.5v-3.5l-1-3.5-2.47-1.41c.72131-1.14022 1.71095-2.0864 2.88241-2.7558 1.17145-.6694 2.48909-1.04165 3.83759-1.0842l-.75 2.25-2 .5-.5 2.5 5 1.5zm5.25 1.77v-3l-1.5-3 2.88-1.23c.9999 1.22011 1.6292 2.70116 1.8135 4.2678.1843 1.5667-.0841 3.1534-.7735 4.5722z" fill="#1d9bf0"/></svg>

<svg width="24" height="24" viewBox="0 0 24 24" fill="none" xmlns="http://www.w3.org/2000/svg">
<path d="M12 1.75C9.97275 1.75 7.99101 2.35115 6.30541 3.47744C4.61981 4.60372 3.30604 6.20455 2.53024 8.07749C1.75444 9.95044 1.55146 12.0114 1.94696 13.9997C2.34245 15.988 3.31867 17.8144 4.75216 19.2478C6.18565 20.6813 8.01202 21.6576 10.0003 22.053C11.9886 22.4485 14.0496 22.2456 15.9225 21.4698C17.7955 20.694 19.3963 19.3802 20.5226 17.6946C21.6489 16.009 22.25 14.0273 22.25 12C22.2497 9.28161 21.1697 6.67464 19.2476 4.75245C17.3254 2.83026 14.7184 1.75027 12 1.75V1.75ZM11.75 12.23L10.5 17.5L8.5 16V12.5L7.5 9L5.03 7.59C5.75131 6.44978 6.74095 5.5036 7.91241 4.8342C9.08386 4.1648 10.4015 3.79255 11.75 3.75L11 6L9 6.5L8.5 9L13.5 10.5L11.75 12.23ZM17 14V11L15.5 8L18.38 6.77C19.3799 7.99011 20.0092 9.47116 20.1935 11.0378C20.3778 12.6045 20.1094 14.1912 19.42 15.61L17 14Z" fill="#1D9BF0"/>
</svg>
